!!!SOCIAL_FUNCTION:	dream songs
!!!PDT:	1909
!!!OTL: No_116_As_the_Hawk_Soars.krn
!!!REG: Great_Lakes
!!!LANG: Non-Tone
!!!LING_GROUP: Algonquin
**kern	**kern
*staff2	*staff1
=1-	=1-
*clefF4	*clefF4
*k[f#c#g#]	*k[f#c#g#]
*M2/4	*M2/4
2r	8e\L
.	8e\J
.	4e\
=2	=2
12GG#^/	8e\L
12r	.
.	8c#\J
12GG#/	.
12GG#^/	12e\L
12r	12c#\
12GG#/	12A\J
=3||	=3||
*M3/4	*M3/4
2.r	2.A\
=4||	=4||
*M2/4	*M2/4
.	Aq/
2r	8F#\L
.	8A\J
.	8A\L
.	8A\J
=5	=5
2r	4.A\
.	8A\
=6||	=6||
*M3/4	*M3/4
2.r	2.A\
=7||	=7||
*M2/4	*M2/4
2r	8e\L
.	8e\J
.	[4e\
=8	=8
2r	8e\L]
.	8c#\J
.	12e\L
.	12c#\
.	12A\J
=9||	=9||
*M3/4	*M3/4
2.r	2.A\
=10||	=10||
*M2/4	*M2/4
.	Aq/
2r	8F#\L
.	8A\J
.	4A\
=11	=11
2r	[4A\
.	8.A\L]
.	16A\Jk
=12||	=12||
*M3/4	*M3/4
2.r	2.A\
=13	=13
2.r	8e\L
.	8e\J
.	2e\
=14||	=14||
*M2/4	*M2/4
2r	8e\L
.	8c#\J
.	[4A\
=15	=15
2r	4.A\]
.	8A\
=16	=16
2r	8F#\L
.	8A\J
.	[4A\
=17	=17
2r	8A\L]
.	8A\J
.	12A\L
.	12A\
.	12F#\J
=18	=18
2r	[2E\
=19	=19
2r	4.E\]
.	8E\
=20	=20
2r	16F#\LK
.	8.A\J
.	[4A\
=21	=21
2r	4A\]
.	4F#\
=22	=22
.	Aq/
2r	16F#\LK
.	8.E\J
.	4C#/
=23	=23
2r	16E/LK
.	[8.C#/J
.	4C#/]
=24||	=24||
*M3/4	*M3/4
2.r	8.AA/L
.	16AA/Jk
.	4.AA/
.	8AA/
=25	=25
2.r	2.AA/
==	==
*-	*-
